images/zhuyin/03.svg

<svg width="50" height="50" viewBox="0 0 50 50" fill="none" xmlns="http://www.w3.org/2000/svg">
<path d="M16.8438 17.8438C16.9531 17.8438 17.1797 18.0156 17.5234 18.3594C17.8359 18.6406 18.1406 18.7812 18.4375 18.7812C18.6406 18.7812 19.2109 18.6875 20.1484 18.5C22.2734 17.9375 24.9766 17.4922 28.2578 17.1641C29.4766 17.0859 30.2891 16.875 30.6953 16.5312C30.9453 16.2812 31.1406 16.1562 31.2812 16.1562C31.5 16.1562 31.8438 16.3672 32.3125 16.7891C32.9375 17.3203 33.25 17.7031 33.25 17.9375C33.25 18.1875 33.1797 18.4297 33.0391 18.6641C32.9453 18.8984 32.9062 20.0547 32.9219 22.1328C32.9688 26.8203 32.8359 29.9922 32.5234 31.6484C32.3203 32.7734 32.0312 33.3359 31.6562 33.3359C31.5 33.3359 31.2969 33.0703 31.0469 32.5391C30.7031 31.8828 30.5312 31.4531 30.5312 31.25C30.5312 31.125 30.5781 30.9141 30.6719 30.6172C30.8906 29.6172 31 27.3594 31 23.8438C31 21 30.9297 19.3047 30.7891 18.7578C30.6641 18.2734 30.2969 18.0312 29.6875 18.0312C28.75 18.0312 27.1719 18.2578 24.9531 18.7109C22.9688 19.1172 21.5469 19.5 20.6875 19.8594C20.1719 20.0781 19.8594 20.1875 19.75 20.1875C19.4062 20.1875 19.0312 20.0312 18.625 19.7188C18.8594 25.0156 18.9141 28.7031 18.7891 30.7812C18.7266 31.4688 18.5469 31.8125 18.25 31.8125C17.8906 31.8125 17.5391 31.4062 17.1953 30.5938C16.9609 30.0312 16.8438 29.4688 16.8438 28.9062L16.9375 27.5234C17.125 24.9453 17.0625 22.375 16.75 19.8125C16.625 19.0625 16.5625 18.6328 16.5625 18.5234C16.5625 18.0703 16.6562 17.8438 16.8438 17.8438Z" fill="#333333"/>
<path d="M17.5234 18.3594L17.1699 18.7129L17.1792 18.7222L17.189 18.731L17.5234 18.3594ZM20.1484 18.5L20.2465 18.9903L20.2615 18.9873L20.2764 18.9834L20.1484 18.5ZM28.2578 17.1641L28.2258 16.6651L28.2169 16.6657L28.2081 16.6665L28.2578 17.1641ZM30.6953 16.5312L31.0183 16.9129L31.0342 16.8995L31.0489 16.8848L30.6953 16.5312ZM32.3125 16.7891L31.978 17.1607L31.9833 17.1654L31.9887 17.17L32.3125 16.7891ZM33.0391 18.6641L32.6103 18.4068L32.5897 18.4412L32.5748 18.4784L33.0391 18.6641ZM32.9219 22.1328L32.4219 22.1366L32.4219 22.1378L32.9219 22.1328ZM32.5234 31.6484L32.0321 31.5557L32.0314 31.5596L32.5234 31.6484ZM31.0469 32.5391L31.4993 32.3262L31.4947 32.3165L31.4898 32.3071L31.0469 32.5391ZM30.6719 30.6172L31.1487 30.7678L31.1555 30.7462L31.1603 30.724L30.6719 30.6172ZM30.7891 18.7578L31.2733 18.6333L31.2732 18.6329L30.7891 18.7578ZM24.9531 18.7109L24.8531 18.221L24.8528 18.2211L24.9531 18.7109ZM20.6875 19.8594L20.4946 19.3981L20.4922 19.3991L20.6875 19.8594ZM18.625 19.7188L18.9299 19.3224L18.078 18.6671L18.1255 19.7409L18.625 19.7188ZM18.7891 30.7812L19.287 30.8265L19.2877 30.8189L19.2882 30.8113L18.7891 30.7812ZM17.1953 30.5938L16.7338 30.7861L16.7348 30.7886L17.1953 30.5938ZM16.8438 28.9062L16.3449 28.8724L16.3438 28.8893V28.9062H16.8438ZM16.9375 27.5234L16.4388 27.4872L16.4386 27.4896L16.9375 27.5234ZM16.75 19.8125L17.2463 19.752L17.245 19.7411L17.2432 19.7303L16.75 19.8125ZM16.8438 18.3438C16.7539 18.3438 16.7043 18.313 16.72 18.3211C16.7263 18.3243 16.7498 18.3378 16.7935 18.371C16.8804 18.4369 17.0045 18.5476 17.1699 18.7129L17.877 18.0058C17.6986 17.8274 17.5376 17.6803 17.3979 17.5743C17.3283 17.5215 17.2532 17.4706 17.1755 17.4309C17.1073 17.3959 16.9883 17.3438 16.8438 17.3438V18.3438ZM17.189 18.731C17.5553 19.0607 17.9741 19.2812 18.4375 19.2812V18.2812C18.3072 18.2812 18.1166 18.2206 17.8579 17.9877L17.189 18.731ZM18.4375 19.2812C18.5861 19.2812 18.8188 19.2503 19.0987 19.2043C19.392 19.1561 19.7752 19.0845 20.2465 18.9903L20.0504 18.0097C19.5841 18.103 19.2135 18.172 18.9365 18.2176C18.6461 18.2653 18.492 18.2812 18.4375 18.2812V19.2812ZM20.2764 18.9834C22.3665 18.4301 25.041 17.9882 28.3076 17.6616L28.2081 16.6665C24.9121 16.9961 22.1804 17.4449 20.0205 18.0166L20.2764 18.9834ZM28.2898 17.663C28.9179 17.6228 29.4596 17.5473 29.9069 17.4312C30.3482 17.3166 30.7342 17.1533 31.0183 16.9129L30.3723 16.1496C30.2501 16.253 30.0268 16.3669 29.6556 16.4633C29.2904 16.5581 28.8165 16.6272 28.2258 16.6651L28.2898 17.663ZM31.0489 16.8848C31.1602 16.7735 31.2429 16.7069 31.2988 16.6711C31.3119 16.6628 31.322 16.657 31.3293 16.6533C31.3366 16.6495 31.3401 16.6482 31.3399 16.6483C31.3397 16.6484 31.3347 16.6502 31.3252 16.6522C31.3156 16.6541 31.3007 16.6562 31.2812 16.6562V15.6562C31.0718 15.6562 30.8909 15.7449 30.7598 15.8289C30.6203 15.9181 30.4805 16.039 30.3418 16.1777L31.0489 16.8848ZM31.2812 16.6562C31.249 16.6562 31.2918 16.6487 31.4416 16.7406C31.5773 16.8239 31.7552 16.9601 31.978 17.1607L32.647 16.4174C32.4011 16.1961 32.1727 16.0159 31.9646 15.8883C31.7707 15.7693 31.5322 15.6562 31.2812 15.6562V16.6562ZM31.9887 17.17C32.291 17.427 32.4996 17.6331 32.6283 17.7908C32.7781 17.9743 32.75 18.0089 32.75 17.9375H33.75C33.75 17.6317 33.5656 17.3577 33.403 17.1584C33.2192 16.9333 32.959 16.6823 32.6363 16.4081L31.9887 17.17ZM32.75 17.9375C32.75 18.0885 32.7088 18.2427 32.6103 18.4068L33.4678 18.9213C33.6506 18.6167 33.75 18.2865 33.75 17.9375H32.75ZM32.5748 18.4784C32.5208 18.6134 32.4971 18.7995 32.4813 18.9652C32.4633 19.1536 32.4497 19.3965 32.4397 19.6901C32.4199 20.2785 32.4141 21.0951 32.4219 22.1366L33.4219 22.1291C33.4141 21.0924 33.42 20.2918 33.4392 19.7239C33.4488 19.4394 33.4615 19.2194 33.4767 19.0602C33.4941 18.8782 33.5104 18.8319 33.5033 18.8498L32.5748 18.4784ZM32.4219 22.1378C32.4688 26.8309 32.3341 29.955 32.0321 31.5557L33.0148 31.7411C33.3377 30.0293 33.4687 26.8097 33.4219 22.1278L32.4219 22.1378ZM32.0314 31.5596C31.9327 32.106 31.8202 32.4702 31.7096 32.6855C31.5887 32.9208 31.5513 32.8359 31.6562 32.8359V33.8359C32.1362 33.8359 32.4308 33.4699 32.599 33.1426C32.7774 32.7954 32.911 32.3159 33.0155 31.7373L32.0314 31.5596ZM31.6562 32.8359C31.7614 32.8359 31.8221 32.8801 31.8275 32.884C31.8341 32.8889 31.8188 32.8786 31.7839 32.833C31.7142 32.7419 31.6187 32.5799 31.4993 32.3262L30.5945 32.752C30.7251 33.0295 30.8561 33.2659 30.9895 33.4404C31.0562 33.5276 31.1366 33.6169 31.2331 33.6882C31.3283 33.7586 31.473 33.8359 31.6562 33.8359V32.8359ZM31.4898 32.3071C31.3217 31.9862 31.2014 31.7315 31.1244 31.5389C31.0395 31.3267 31.0312 31.247 31.0312 31.25H30.0312C30.0312 31.4561 30.1089 31.6928 30.1959 31.9103C30.2908 32.1474 30.4283 32.4357 30.604 32.7711L31.4898 32.3071ZM31.0312 31.25C31.0312 31.2109 31.0541 31.0672 31.1487 30.7678L30.1951 30.4666C30.1021 30.7609 30.0312 31.0391 30.0312 31.25H31.0312ZM31.1603 30.724C31.3929 29.6608 31.5 27.3447 31.5 23.8438H30.5C30.5 27.3741 30.3883 29.5736 30.1834 30.5103L31.1603 30.724ZM31.5 23.8438C31.5 22.4189 31.4824 21.2763 31.4468 20.4187C31.4121 19.5802 31.359 18.9664 31.2733 18.6333L30.3048 18.8823C30.3598 19.0961 30.4122 19.6034 30.4477 20.4602C30.4824 21.2979 30.5 22.4249 30.5 23.8438H31.5ZM31.2732 18.6329C31.1843 18.2883 30.9965 17.9942 30.6952 17.7955C30.4041 17.6035 30.0536 17.5312 29.6875 17.5312V18.5312C29.9307 18.5312 30.0686 18.5801 30.1446 18.6303C30.2105 18.6737 30.2688 18.7429 30.3049 18.8828L31.2732 18.6329ZM29.6875 17.5312C28.6942 17.5312 27.0716 17.768 24.8531 18.221L25.0532 19.2008C27.2722 18.7477 28.8058 18.5312 29.6875 18.5312V17.5312ZM24.8528 18.2211C22.8647 18.6281 21.402 19.0186 20.4946 19.3981L20.8804 20.3207C21.6918 19.9814 23.0728 19.6063 25.0534 19.2008L24.8528 18.2211ZM20.4922 19.3991C20.2386 19.5067 20.0428 19.584 19.9012 19.6335C19.8302 19.6584 19.779 19.6741 19.7446 19.683C19.7008 19.6943 19.7113 19.6875 19.75 19.6875V20.6875C19.8434 20.6875 19.9339 20.667 19.9956 20.651C20.0667 20.6326 20.1463 20.6072 20.2316 20.5774C20.4025 20.5176 20.6208 20.4308 20.8828 20.3197L20.4922 19.3991ZM19.75 19.6875C19.559 19.6875 19.2897 19.5993 18.9299 19.3224L18.3201 20.1151C18.7728 20.4632 19.2535 20.6875 19.75 20.6875V19.6875ZM18.1255 19.7409C18.3599 25.0388 18.4132 28.7023 18.29 30.7512L19.2882 30.8113C19.4149 28.7039 19.3588 24.9924 19.1245 19.6966L18.1255 19.7409ZM18.2911 30.736C18.2619 31.0574 18.2089 31.2378 18.1643 31.3231C18.1443 31.3613 18.1378 31.3572 18.1582 31.3425C18.1847 31.3234 18.2204 31.3125 18.25 31.3125V32.3125C18.643 32.3125 18.9053 32.0641 19.0505 31.7863C19.1857 31.5278 19.2537 31.1926 19.287 30.8265L18.2911 30.736ZM18.25 31.3125C18.2751 31.3125 18.2233 31.329 18.0949 31.1806C17.9682 31.0342 17.8186 30.7837 17.6558 30.3989L16.7348 30.7886C16.9158 31.2163 17.1138 31.5751 17.3387 31.835C17.5619 32.0929 17.8655 32.3125 18.25 32.3125V31.3125ZM17.6569 30.4014C17.4457 29.8948 17.3438 29.3974 17.3438 28.9062H16.3438C16.3438 29.5401 16.4761 30.1677 16.7338 30.7861L17.6569 30.4014ZM17.3426 28.9401L17.4364 27.5573L16.4386 27.4896L16.3449 28.8724L17.3426 28.9401ZM17.4362 27.5597C17.626 24.9494 17.5627 22.3466 17.2463 19.752L16.2537 19.873C16.5623 22.4034 16.624 24.9413 16.4388 27.4872L17.4362 27.5597ZM17.2432 19.7303C17.1809 19.3566 17.1347 19.0656 17.1042 18.8558C17.0889 18.7507 17.0779 18.6686 17.0709 18.6079C17.063 18.5399 17.0625 18.5186 17.0625 18.5234H16.0625C16.0625 18.6225 16.0853 18.7981 16.1146 18.9997C16.1466 19.2196 16.1941 19.5184 16.2568 19.8947L17.2432 19.7303ZM17.0625 18.5234C17.0625 18.4262 17.0676 18.3509 17.0754 18.2944C17.0834 18.2362 17.0927 18.21 17.0948 18.2048C17.0972 18.1992 17.0837 18.2359 17.0344 18.2756C16.977 18.3218 16.9063 18.3438 16.8438 18.3438V17.3438C16.6875 17.3438 16.5347 17.394 16.407 17.4969C16.2874 17.5932 16.2153 17.7149 16.1708 17.8225C16.0858 18.028 16.0625 18.2774 16.0625 18.5234H17.0625Z" fill="#333333"/>
</svg>

<svg xmlns="http://www.w3.org/2000/svg" width="50" height="50" fill="none"><path fill="#333" d="M16.844 17.844c.11 0 .336.172.68.515.312.282.617.422.913.422.204 0 .774-.093 1.711-.281 2.125-.563 4.829-1.008 8.11-1.336 1.219-.078 2.031-.289 2.437-.633.25-.25.446-.375.586-.375.219 0 .563.211 1.032.633.624.531.937.914.937 1.148 0 .25-.07.493-.21.727-.095.234-.134 1.39-.118 3.469.047 4.687-.086 7.86-.399 9.515-.203 1.125-.492 1.688-.867 1.688-.156 0-.36-.266-.61-.797-.343-.656-.515-1.086-.515-1.289 0-.125.047-.336.14-.633.22-1 .329-3.258.329-6.773 0-2.844-.07-4.54-.21-5.086-.126-.485-.493-.727-1.102-.727-.938 0-2.516.227-4.735.68-1.984.406-3.406.789-4.265 1.148-.516.22-.829.328-.938.328-.344 0-.719-.156-1.125-.468.234 5.297.29 8.984.164 11.062-.062.688-.242 1.032-.539 1.032-.36 0-.71-.407-1.055-1.22a4.358 4.358 0 0 1-.351-1.687l.093-1.383a39.738 39.738 0 0 0-.187-7.71c-.125-.75-.188-1.18-.188-1.29 0-.453.094-.68.282-.68Z"/><path fill="#333" d="m17.523 18.36-.353.353.01.01.009.008.334-.372Zm2.625.14.099.49.015-.003.014-.004-.128-.483Zm8.11-1.336-.032-.499h-.01l-.008.002.05.497Zm2.437-.633.323.382.016-.014.015-.014-.354-.354Zm1.617.258-.334.372.005.004.006.005.323-.38Zm.727 1.875-.429-.257-.02.034-.015.037.464.186Zm-.117 3.469-.5.004.5-.004Zm-.399 9.515-.49-.092-.002.004.492.088Zm-1.476.891.452-.213-.004-.01-.005-.009-.443.232Zm-.375-1.922.477.15.006-.02.005-.023-.488-.107Zm.117-11.86.484-.124-.484.125Zm-5.836-.046-.1-.49.1.49Zm-4.265 1.148-.193-.46h-.003l.195.46Zm-2.063-.14.305-.397-.852-.655.047 1.074.5-.022Zm.164 11.062.498.046v-.008l.001-.008-.499-.03Zm-1.594-.187-.461.192v.003l.461-.195Zm-.351-1.688-.5-.034v.034h.5Zm.093-1.383-.498-.036v.003l.498.033Zm-.187-7.71.496-.061-.001-.01-.002-.012-.493.082Zm.094-1.47c-.09 0-.14-.03-.124-.022.006.003.03.017.074.05.086.066.21.177.376.342l.707-.707a4.933 4.933 0 0 0-.48-.432 1.519 1.519 0 0 0-.221-.143.732.732 0 0 0-.332-.087v1Zm.345.388c.366.33.785.55 1.248.55v-1c-.13 0-.32-.06-.58-.293l-.668.743Zm1.248.55c.15 0 .382-.03.662-.077.293-.048.676-.12 1.148-.214l-.197-.98c-.466.093-.837.162-1.114.208-.29.047-.444.063-.498.063v1Zm1.84-.298c2.09-.553 4.764-.995 8.03-1.321l-.099-.995c-3.296.33-6.028.778-8.188 1.35l.256.966Zm8.013-1.32c.628-.04 1.17-.116 1.617-.232.441-.114.827-.278 1.111-.518l-.646-.763c-.122.103-.345.217-.716.313-.366.095-.84.164-1.43.202l.064.998Zm2.759-.778a1.617 1.617 0 0 1 .28-.232.099.099 0 0 1 .01-.005l-.014.004a.228.228 0 0 1-.044.004v-1a.98.98 0 0 0-.521.173c-.14.09-.28.21-.418.349l.707.707Zm.232-.229c-.032 0 .01-.007.16.085.136.083.314.22.537.42l.669-.744a4.866 4.866 0 0 0-.682-.529c-.194-.119-.433-.232-.684-.232v1Zm.708.514c.302.257.51.463.64.62.15.184.121.219.121.148h1c0-.306-.184-.58-.347-.78a6.14 6.14 0 0 0-.767-.75l-.647.762Zm.761.767a.895.895 0 0 1-.14.47l.858.514c.183-.304.282-.634.282-.983h-1Zm-.175.541a1.897 1.897 0 0 0-.094.487c-.018.189-.031.431-.041.725a63.34 63.34 0 0 0-.018 2.447l1-.008a62.146 62.146 0 0 1 .017-2.405c.01-.285.023-.505.038-.664.017-.182.033-.228.026-.21l-.928-.372Zm-.153 3.66c.047 4.693-.088 7.817-.39 9.418l.983.185c.323-1.712.454-4.931.407-9.613l-1 .01Zm-.39 9.422c-.1.546-.212.91-.322 1.125-.121.236-.159.15-.054.15v1c.48 0 .775-.365.943-.692.178-.348.312-.827.417-1.406l-.985-.177Zm-.376 1.276c.105 0 .166.044.172.048.006.005-.01-.005-.044-.051a2.969 2.969 0 0 1-.285-.507l-.904.426c.13.277.261.514.395.688.066.088.147.177.243.248.095.07.24.148.423.148v-1Zm-.166-.529a8.722 8.722 0 0 1-.366-.768c-.084-.212-.093-.292-.093-.289h-1c0 .206.078.443.165.66.095.237.232.526.408.861l.886-.464Zm-.459-1.057c0-.04.023-.183.118-.482l-.954-.301c-.093.294-.164.572-.164.783h1Zm.13-.526c.232-1.063.339-3.38.339-6.88h-1c0 3.53-.112 5.73-.317 6.666l.977.214Zm.339-6.88c0-1.425-.018-2.568-.053-3.425-.035-.839-.088-1.453-.174-1.786l-.968.25c.055.213.107.72.143 1.577.034.838.052 1.965.052 3.384h1Zm-.227-5.211a1.388 1.388 0 0 0-.578-.837c-.29-.192-.641-.265-1.008-.265v1c.244 0 .382.05.458.1.066.043.124.112.16.252l.968-.25Zm-1.585-1.102c-.994 0-2.616.237-4.835.69l.2.98c2.22-.453 3.753-.67 4.634-.67v-1Zm-4.835.69c-1.988.407-3.451.798-4.358 1.177l.385.923c.812-.34 2.193-.715 4.173-1.12l-.2-.98Zm-4.36 1.178c-.254.108-.45.185-.592.235-.07.024-.122.04-.156.049-.044.011-.034.005.005.005v1a1 1 0 0 0 .246-.037c.07-.018.15-.044.236-.074.17-.06.389-.146.65-.257l-.39-.92Zm-.743.288c-.191 0-.46-.088-.82-.365l-.61.793c.453.348.933.573 1.43.573v-1Zm-1.625.054c.235 5.298.288 8.961.165 11.01l.998.06c.127-2.107.07-5.819-.163-11.114l-1 .044Zm.166 10.995c-.03.321-.082.502-.127.587-.02.038-.026.034-.006.02a.166.166 0 0 1 .092-.03v1c.393 0 .655-.249.8-.527.136-.258.204-.593.237-.96l-.996-.09Zm-.041.576c.025 0-.027.017-.155-.131-.127-.147-.276-.397-.44-.782l-.92.39c.18.427.379.786.604 1.046.223.258.527.477.911.477v-1Zm-.593-.91a3.856 3.856 0 0 1-.313-1.496h-1c0 .634.132 1.262.39 1.88l.923-.385Zm-.314-1.462.093-1.383-.997-.067-.094 1.382.998.068Zm.093-1.38c.19-2.61.127-5.213-.19-7.808l-.992.121c.308 2.53.37 5.068.185 7.614l.997.073Zm-.193-7.83a45.118 45.118 0 0 1-.139-.874 8.844 8.844 0 0 1-.033-.248l-.009-.085h-1c0 .1.023.275.053.477.032.22.08.518.142.895l.986-.165Zm-.18-1.207c0-.097.005-.172.012-.229a.419.419 0 0 1 .02-.09c.002-.005-.011.032-.06.072a.31.31 0 0 1-.191.068v-1a.69.69 0 0 0-.437.153.81.81 0 0 0-.236.326c-.085.205-.108.454-.108.7h1Z"/></svg>
